build/img/delivery__02.svg

<svg width="140" height="140" viewBox="0 0 140 140" fill="none" xmlns="http://www.w3.org/2000/svg">
<g clip-path="url(#clip0)">
<path opacity="0.05" fill-rule="evenodd" clip-rule="evenodd" d="M3.03544 81.1918C1.84499 68.8407 13.8616 59.458 19.9618 48.3928C27.6252 34.4921 27.9617 14.8248 43.3048 8.14667C58.6022 1.48846 75.9201 11.9272 91.8914 17.0854C107.423 22.1017 127.15 24.1361 134.566 37.6209C141.965 51.0747 130.81 66.5026 127.147 81.1918C124.422 92.1203 123.065 103.242 115.934 112.347C108.775 121.49 98.9836 128.898 87.2363 132.158C75.6387 135.376 63.1206 134.198 51.8448 130.13C41.0467 126.235 33.7347 117.884 25.9028 110.032C16.9359 101.041 4.20531 93.3294 3.03544 81.1918Z" fill="#0B9EC7"/>
<path opacity="0.05" fill-rule="evenodd" clip-rule="evenodd" d="M0.396748 69.1001C2.53237 54.8324 19.2295 47.3841 28.7428 35.9267C37.9437 24.8456 41.2516 8.73851 55.1598 3.14602C69.4111 -2.58437 86.9953 -0.019947 100.497 7.07435C112.901 13.5918 116.359 27.7624 123.563 39.0871C129.866 48.9941 139.273 57.6471 139.956 69.1001C140.658 80.8746 132.804 90.9439 127.29 101.597C120.293 115.115 119.308 135.908 103.486 139.562C87.3579 143.287 77.185 122.184 61.641 116.759C47.3937 111.787 29.3356 118.67 17.7116 109.625C5.3472 100.003 -1.80868 83.8343 0.396748 69.1001Z" fill="#0B9EC7"/>
<path d="M61.4549 77.4788C58.4085 77.4788 55.9465 79.9495 55.9465 82.9961C55.9465 86.0336 58.4085 88.5045 61.4549 88.5045C64.5014 88.5045 66.9634 86.0336 66.9634 82.9961C66.9632 79.9495 64.5014 77.4788 61.4549 77.4788ZM61.4549 85.7503C59.9317 85.7503 58.7006 84.5103 58.7006 82.9959C58.7006 81.4728 59.9317 80.2417 61.4549 80.2417C62.9781 80.2417 64.2091 81.4728 64.2091 82.9959C64.209 84.5103 62.9781 85.7503 61.4549 85.7503ZM103 73.4036V79.2854C103 80.7526 101.811 81.9422 100.343 81.9422H97.5004C96.9868 78.4174 93.9493 75.7075 90.2828 75.7075C86.6254 75.7075 83.5877 78.4175 83.074 81.9422H68.6654C68.1518 78.4174 65.1142 75.7075 61.4567 75.7075C57.7992 75.7075 54.7615 78.4175 54.248 81.9422H50.6879C49.2206 81.9422 48.0312 80.7527 48.0312 79.2854V73.4036H103ZM90.2899 77.4788C87.2435 77.4788 84.7727 79.9495 84.7727 82.9961C84.7727 86.0336 87.2436 88.5045 90.2899 88.5045C93.3274 88.5045 95.7982 86.0336 95.7982 82.9961C95.7982 79.9495 93.3274 77.4788 90.2899 77.4788ZM90.2899 85.7503C88.7666 85.7503 87.5357 84.5103 87.5357 82.9959C87.5357 81.4728 88.7666 80.2417 90.2899 80.2417C91.8043 80.2417 93.0441 81.4728 93.0441 82.9959C93.0441 84.5103 91.8043 85.7503 90.2899 85.7503ZM101.953 67.4804L91.5121 57.1543C90.8479 56.499 89.9535 56.127 89.0235 56.127H83.7543V54.1521C83.7543 52.6821 82.5676 51.4954 81.0976 51.4954H50.686C49.2248 51.4954 48.0293 52.6822 48.0293 54.1521V54.5683L37.248 55.8109L56.352 58.2986L37 60.221L56.2839 62.9627L37 64.6347L48.03 66.715L48.0292 71.935H102.998V69.9954C102.998 69.0478 102.617 68.1446 101.953 67.4804ZM97.4012 67.8257H87.2966C87.0664 67.8257 86.8804 67.6398 86.8804 67.4095V59.6074C86.8804 59.3772 87.0664 59.1911 87.2966 59.1911H89.2184C89.3246 59.1911 89.431 59.2355 89.5107 59.3063L97.6847 67.1084C97.9591 67.3652 97.7731 67.8257 97.4012 67.8257Z" fill="#0B9EC7"/>
<path d="M61.455 77.4789C58.4086 77.4789 55.9466 79.9496 55.9466 82.9962C55.9466 86.0337 58.4086 88.5046 61.455 88.5046C64.5015 88.5046 66.9634 86.0337 66.9634 82.9962C66.9633 79.9496 64.5015 77.4789 61.455 77.4789ZM61.455 85.7504C59.9317 85.7504 58.7007 84.5104 58.7007 82.996C58.7007 81.4729 59.9317 80.2418 61.455 80.2418C62.9782 80.2418 64.2092 81.4729 64.2092 82.996C64.2091 84.5104 62.9782 85.7504 61.455 85.7504ZM103 73.4037V79.2855C103 80.7527 101.811 81.9422 100.343 81.9422H97.5005C96.9868 78.4175 93.9493 75.7076 90.2829 75.7076C86.6255 75.7076 83.5878 78.4176 83.0741 81.9422H68.6655C68.1519 78.4175 65.1142 75.7076 61.4567 75.7076C57.7992 75.7076 54.7616 78.4176 54.2481 81.9422H50.688C49.2206 81.9422 48.0312 80.7528 48.0312 79.2855V73.4037H103ZM90.29 77.4789C87.2435 77.4789 84.7728 79.9496 84.7728 82.9962C84.7728 86.0337 87.2436 88.5046 90.29 88.5046C93.3275 88.5046 95.7983 86.0337 95.7983 82.9962C95.7983 79.9496 93.3275 77.4789 90.29 77.4789ZM90.29 85.7504C88.7667 85.7504 87.5358 84.5104 87.5358 82.996C87.5358 81.4729 88.7667 80.2418 90.29 80.2418C91.8043 80.2418 93.0442 81.4729 93.0442 82.996C93.0442 84.5104 91.8043 85.7504 90.29 85.7504Z" fill="#007AAD"/>
</g>
<defs>
<clipPath id="clip0">
<rect width="140" height="140" fill="white" transform="translate(0 140) rotate(-90)"/>
</clipPath>
</defs>
</svg>

<svg width="140" height="140" fill="none" xmlns="http://www.w3.org/2000/svg"><g clip-path="url(#clip0)"><path opacity=".05" fill-rule="evenodd" clip-rule="evenodd" d="M3.035 81.192c-1.19-12.351 10.827-21.734 16.927-32.8 7.663-13.9 8-33.567 23.343-40.245 15.297-6.659 32.615 3.78 48.586 8.938 15.532 5.017 35.259 7.051 42.675 20.536 7.399 13.454-3.756 28.882-7.419 43.57-2.725 10.93-4.082 22.051-11.213 31.156-7.159 9.143-16.95 16.551-28.698 19.811-11.597 3.218-24.115 2.04-35.391-2.028-10.798-3.895-18.11-12.246-25.942-20.098-8.967-8.991-21.698-16.703-22.868-28.84z" fill="#0B9EC7"/><path opacity=".05" fill-rule="evenodd" clip-rule="evenodd" d="M.397 69.1C2.532 54.832 19.23 47.384 28.743 35.927c9.2-11.081 12.509-27.188 26.417-32.781 14.25-5.73 31.835-3.166 45.337 3.928 12.404 6.518 15.862 20.688 23.066 32.013 6.303 9.907 15.71 18.56 16.393 30.013.702 11.775-7.152 21.844-12.666 32.497-6.997 13.518-7.982 34.311-23.804 37.965-16.128 3.725-26.301-17.378-41.845-22.803-14.247-4.972-32.305 1.911-43.93-7.134C5.348 100.003-1.808 83.835.398 69.1z" fill="#0B9EC7"/><path d="M61.455 77.479a5.51 5.51 0 00-5.508 5.517 5.509 5.509 0 0011.016 0 5.51 5.51 0 00-5.508-5.517zm0 8.271a2.757 2.757 0 01-2.754-2.754 2.752 2.752 0 012.754-2.754 2.752 2.752 0 012.754 2.754 2.757 2.757 0 01-2.754 2.754zM103 73.404v5.881a2.657 2.657 0 01-2.657 2.657H97.5a7.299 7.299 0 00-7.217-6.234c-3.658 0-6.695 2.71-7.209 6.234H68.665c-.513-3.525-3.55-6.234-7.208-6.234-3.658 0-6.696 2.71-7.209 6.234h-3.56a2.657 2.657 0 01-2.657-2.657v-5.881H103zm-12.71 4.075a5.518 5.518 0 00-5.517 5.517 5.516 5.516 0 005.517 5.508 5.514 5.514 0 005.508-5.508 5.516 5.516 0 00-5.508-5.517zm0 8.271a2.757 2.757 0 01-2.754-2.754 2.752 2.752 0 012.754-2.754 2.757 2.757 0 012.754 2.754 2.763 2.763 0 01-2.754 2.754zm11.663-18.27l-10.44-10.326a3.55 3.55 0 00-2.49-1.027h-5.269v-1.975a2.653 2.653 0 00-2.656-2.657H50.686a2.659 2.659 0 00-2.657 2.657v.416l-10.781 1.243 19.104 2.488L37 60.22l19.284 2.742L37 64.635l11.03 2.08v5.22h54.968v-1.94a3.56 3.56 0 00-1.045-2.515zm-4.552.346H87.297a.416.416 0 01-.417-.416v-7.803c0-.23.186-.416.417-.416h1.921a.45.45 0 01.293.115l8.174 7.802a.416.416 0 01-.284.718z" fill="#0B9EC7"/><path d="M61.455 77.479a5.51 5.51 0 00-5.508 5.517 5.509 5.509 0 0011.016 0 5.51 5.51 0 00-5.508-5.517zm0 8.271a2.757 2.757 0 01-2.754-2.754 2.752 2.752 0 012.754-2.754 2.752 2.752 0 012.754 2.754 2.757 2.757 0 01-2.754 2.754zM103 73.404v5.882a2.657 2.657 0 01-2.657 2.656H97.5a7.3 7.3 0 00-7.217-6.234c-3.657 0-6.695 2.71-7.209 6.234H68.665c-.513-3.524-3.55-6.234-7.208-6.234-3.658 0-6.695 2.71-7.209 6.234h-3.56a2.657 2.657 0 01-2.657-2.656v-5.882H103zm-12.71 4.075a5.518 5.518 0 00-5.517 5.517 5.516 5.516 0 005.517 5.509 5.514 5.514 0 005.508-5.509 5.516 5.516 0 00-5.508-5.517zm0 8.271a2.757 2.757 0 01-2.754-2.754 2.752 2.752 0 012.754-2.754 2.757 2.757 0 012.754 2.754 2.763 2.763 0 01-2.754 2.754z" fill="#007AAD"/></g><defs><clipPath id="clip0"><path fill="#fff" transform="rotate(-90 70 70)" d="M0 0h140v140H0z"/></clipPath></defs></svg>
